src/skin/images/source-all.svg

<?xml version="1.0" encoding="utf-8"?>
<!DOCTYPE svg PUBLIC "-//W3C//DTD SVG 1.1//EN" "http://www.w3.org/Graphics/SVG/1.1/DTD/svg11.dtd">
<svg
width="512" height="512"
viewBox="0 0 512 512" 
xmlns="http://www.w3.org/2000/svg" 
xmlns:xlink="http://www.w3.org/1999/xlink" 
fill="#000000">
  <path
     d="M 42 0 C 20 0 2 18 2 40 L 2 472 C 2 494 20 512 42 512 L 410 512 C 432 512 450 494 450 472 L 450 434.87695 L 418 439.00586 L 418 472 C 418 476.336 414.336 480 410 480 L 42 480 C 37.664 480 34 476.336 34 472 L 34 40 C 34 35.664 37.664 32 42 32 L 282 32 C 284.416 32 287.127 32.304564 290 32.851562 L 290 131.16797 L 317.84375 160 L 417.14844 160 C 417.22103 160.38129 417.27787 160.75171 417.3418 161.12695 C 423.48791 149.10284 428.18772 137.35237 431.27148 126.28516 C 432.28531 122.64668 433.14104 119.14061 433.85352 115.75195 C 430.17018 109.57279 426.05459 104.05264 421.7168 99.714844 L 350.2832 28.283203 C 334.7272 12.727203 304 4.7369516e-015 282 0 L 42 0 z M 447.55273 18.730469 L 438.81055 26.386719 C 498.15094 75.656682 462.96493 186.4464 376.15625 266.73047 L 310.8457 199.10547 L 274.73633 425.01953 L 500.85352 395.84961 L 444.33008 337.32227 C 523.64715 252.37386 531.98809 59.680524 447.55273 18.730469 z M 322 46.271484 C 324.17 47.786484 326.09125 49.347109 327.65625 50.912109 L 399.08984 122.34375 C 400.65484 123.90875 402.21352 125.83 403.72852 128 L 322 128 L 322 46.271484 z "
     id="path4151" />
</svg>

<svg width="512" height="512" xmlns="http://www.w3.org/2000/svg"><path d="M42 0C20 0 2 18 2 40v432c0 22 18 40 40 40h368c22 0 40-18 40-40v-37.123l-32 4.129V472c0 4.336-3.664 8-8 8H42c-4.336 0-8-3.664-8-8V40c0-4.336 3.664-8 8-8h240c2.416 0 5.127.305 8 .852v98.316L317.844 160h99.304c.073.381.13.752.194 1.127 6.146-12.024 10.846-23.775 13.93-34.842a168.078 168.078 0 0 0 2.582-10.533c-3.684-6.18-7.8-11.7-12.137-16.037l-71.434-71.432C334.727 12.727 304 0 282 0H42zm405.553 18.73l-8.742 7.657c59.34 49.27 24.154 160.06-62.655 240.343l-65.31-67.625-36.11 225.915 226.118-29.17-56.524-58.528c79.317-84.948 87.658-277.641 3.223-318.592zM322 46.271c2.17 1.515 4.091 3.076 5.656 4.641l71.434 71.432c1.565 1.565 3.124 3.486 4.639 5.656H322V46.271z"/></svg>
